dist/images/info/img1.svg

<svg width="34" height="34" viewBox="0 0 34 34" fill="none" xmlns="http://www.w3.org/2000/svg">
<path d="M33.0122 16.027L29.8937 15.2003L27.417 8.73891C27.2201 8.22504 26.727 7.886 26.1768 7.886H21.5265V3.85156C21.5265 3.11798 20.932 2.52344 20.1984 2.52344H6.375C5.64142 2.52344 5.04688 3.11798 5.04688 3.85156C5.04688 4.58514 5.64142 5.17969 6.375 5.17969H18.8703V26.2969H12.5139C11.9715 24.8256 10.5557 23.7734 8.89844 23.7734C6.77473 23.7734 5.04688 25.5013 5.04688 27.625C5.04688 29.7487 6.77473 31.4766 8.89844 31.4766C10.5557 31.4766 11.9715 30.4244 12.5139 28.9531H24.0095C24.5519 30.4244 25.9677 31.4766 27.625 31.4766C29.2823 31.4766 30.6981 30.4244 31.2405 28.9531H32.6719C33.4055 28.9531 34 28.3586 34 27.625V17.3108C34 16.7082 33.5946 16.1813 33.0122 16.027V16.027ZM8.89844 28.8203C8.2393 28.8203 7.70312 28.2841 7.70312 27.625C7.70312 26.9659 8.2393 26.4297 8.89844 26.4297C9.55757 26.4297 10.0938 26.9659 10.0938 27.625C10.0938 28.2841 9.55757 28.8203 8.89844 28.8203ZM21.5265 10.5423H25.2634L27.6564 16.7852C27.8092 17.1837 28.1438 17.4843 28.5562 17.5938L31.3438 18.3325V26.2969H31.2405C30.6981 24.8256 29.2823 23.7734 27.625 23.7734C25.9677 23.7734 24.5519 24.8256 24.0095 26.2969H21.5265V10.5423ZM27.625 28.8203C26.9659 28.8203 26.4297 28.2841 26.4297 27.625C26.4297 26.9659 26.9659 26.4297 27.625 26.4297C28.2841 26.4297 28.8203 26.9659 28.8203 27.625C28.8203 28.2841 28.2841 28.8203 27.625 28.8203Z" fill="#0D0D0D"/>
<path d="M3.01025 10.7578H6.37492C7.10851 10.7578 7.70305 10.1633 7.70305 9.42969C7.70305 8.69611 7.10851 8.10156 6.37492 8.10156H3.01025C2.27667 8.10156 1.68213 8.69611 1.68213 9.42969C1.68213 10.1633 2.27693 10.7578 3.01025 10.7578Z" fill="#0D0D0D"/>
<path d="M6.02092 14.4766C6.02092 13.743 5.42638 13.1484 4.69279 13.1484H1.32812C0.594543 13.1484 0 13.743 0 14.4766C0 15.2101 0.594543 15.8047 1.32812 15.8047H4.69279C5.42612 15.8047 6.02092 15.2101 6.02092 14.4766Z" fill="#0D0D0D"/>
<path d="M7.70305 19.5234C7.70305 18.7899 7.10851 18.1953 6.37492 18.1953H3.01025C2.27667 18.1953 1.68213 18.7899 1.68213 19.5234C1.68213 20.257 2.27667 20.8516 3.01025 20.8516H6.37492C7.10851 20.8516 7.70305 20.257 7.70305 19.5234Z" fill="#0D0D0D"/>
</svg>

<svg width="34" height="34" fill="none" xmlns="http://www.w3.org/2000/svg"><path d="M33.012 16.027l-3.118-.827-2.477-6.461a1.328 1.328 0 00-1.24-.853h-4.65V3.852c0-.734-.595-1.329-1.329-1.329H6.375a1.328 1.328 0 100 2.657H18.87v21.117h-6.356a3.858 3.858 0 00-3.616-2.524 3.856 3.856 0 00-3.851 3.852 3.856 3.856 0 003.851 3.852 3.858 3.858 0 003.616-2.524h11.495a3.858 3.858 0 003.616 2.524 3.858 3.858 0 003.616-2.524h1.43c.735 0 1.329-.594 1.329-1.328V17.311c0-.603-.405-1.13-.988-1.284zM8.898 28.82a1.196 1.196 0 11.001-2.389 1.196 1.196 0 01-.001 2.389zm12.628-18.278h3.737l2.393 6.243c.153.399.488.7.9.809l2.788.738v7.965h-.104a3.858 3.858 0 00-3.615-2.524 3.858 3.858 0 00-3.616 2.524h-2.483V10.542zm6.099 18.278a1.196 1.196 0 11.001-2.391 1.196 1.196 0 01-.001 2.391z" fill="#0D0D0D"/><path d="M3.01 10.758h3.365a1.328 1.328 0 100-2.656H3.01a1.328 1.328 0 100 2.656zm3.01 3.719c0-.734-.594-1.329-1.327-1.329H1.328a1.328 1.328 0 100 2.657h3.365c.733 0 1.328-.595 1.328-1.328zm1.683 5.046c0-.733-.594-1.328-1.328-1.328H3.01a1.328 1.328 0 100 2.657h3.365c.734 0 1.328-.595 1.328-1.329z" fill="#0D0D0D"/></svg>
